src/assets/icons/sign-in.svg

<svg width="14" height="14" viewBox="0 0 14 14" fill="none" xmlns="http://www.w3.org/2000/svg">
<g id="sign-in">
<g clip-path="url(#clip0_156_4653)">
<path id="Vector" fill-rule="evenodd" clip-rule="evenodd" d="M8.8 0.6C8.8 0.268629 9.06863 0 9.4 0H11.8C12.9435 0 14 0.844599 14 2.024V11.976C14 13.1554 12.9435 14 11.8 14H9.4C9.06863 14 8.8 13.7314 8.8 13.4C8.8 13.0686 9.06863 12.8 9.4 12.8H11.8C12.4165 12.8 12.8 12.3646 12.8 11.976V2.024C12.8 1.6354 12.4165 1.2 11.8 1.2H9.4C9.06863 1.2 8.8 0.931371 8.8 0.6ZM5.77574 3.37574C6.01005 3.14142 6.38995 3.14142 6.62426 3.37574L9.82426 6.57574C9.94142 6.69289 10 6.84645 10 7C10 7.08135 9.98381 7.15893 9.95447 7.22967C9.92519 7.30044 9.88179 7.36674 9.82426 7.42426L6.62426 10.6243C6.38995 10.8586 6.01005 10.8586 5.77574 10.6243C5.54142 10.3899 5.54142 10.0101 5.77574 9.77574L7.95147 7.6H0.6C0.268629 7.6 0 7.33137 0 7C0 6.66863 0.268629 6.4 0.6 6.4H7.95147L5.77574 4.22426C5.54142 3.98995 5.54142 3.61005 5.77574 3.37574Z" fill="black"/>
</g>
</g>
<defs>
<clipPath id="clip0_156_4653">
<rect width="14" height="14" fill="white"/>
</clipPath>
</defs>
</svg>

<svg xmlns="http://www.w3.org/2000/svg" fill="none" viewBox="0 0 14 14"><g clip-path="url(#a)"><path fill="#000" fill-rule="evenodd" d="M8.8.6a.6.6 0 0 1 .6-.6h2.4c1.143 0 2.2.845 2.2 2.024v9.952C14 13.156 12.944 14 11.8 14H9.4a.6.6 0 1 1 0-1.2h2.4c.616 0 1-.435 1-.824V2.024c0-.389-.384-.824-1-.824H9.4a.6.6 0 0 1-.6-.6M5.776 3.376a.6.6 0 0 1 .848 0l3.2 3.2a.6.6 0 0 1 0 .848l-3.2 3.2a.6.6 0 0 1-.848-.848L7.95 7.6H.6a.6.6 0 0 1 0-1.2h7.351L5.776 4.224a.6.6 0 0 1 0-.848" clip-rule="evenodd"/></g><defs><clipPath id="a"><path fill="#fff" d="M0 0h14v14H0z"/></clipPath></defs></svg>
